dist/svg/chart-scatter.svg

<svg width="16" height="16" viewBox="0 0 16 16" fill="rgb(34, 34, 34)" xmlns="http://www.w3.org/2000/svg"><title>chart-scatter</title><path d="M16 13.963V14.963H0V0.963013H1V13.963H16ZM4 10C3.448 10 3 10.448 3 11C3 11.552 3.448 12 4 12C4.552 12 5 11.552 5 11C5 10.448 4.552 10 4 10ZM5 6.00001C4.448 6.00001 4 6.44801 4 7.00001C4 7.55201 4.448 8.00001 5 8.00001C5.552 8.00001 6 7.55201 6 7.00001C6 6.44801 5.552 6.00001 5 6.00001ZM7 9.00001C6.448 9.00001 6 9.44801 6 10C6 10.552 6.448 11 7 11C7.552 11 8 10.552 8 10C8 9.44801 7.552 9.00001 7 9.00001ZM9 6.00001C8.448 6.00001 8 6.44801 8 7.00001C8 7.55201 8.448 8.00001 9 8.00001C9.552 8.00001 10 7.55201 10 7.00001C10 6.44801 9.552 6.00001 9 6.00001ZM7 3.00001C6.448 3.00001 6 3.44801 6 4.00001C6 4.55201 6.448 5.00001 7 5.00001C7.552 5.00001 8 4.55201 8 4.00001C8 3.44801 7.552 3.00001 7 3.00001ZM13 7.00001C12.448 7.00001 12 7.44801 12 8.00001C12 8.55201 12.448 9.00001 13 9.00001C13.552 9.00001 14 8.55201 14 8.00001C14 7.44801 13.552 7.00001 13 7.00001ZM11 3.00001C10.448 3.00001 10 3.44801 10 4.00001C10 4.55201 10.448 5.00001 11 5.00001C11.552 5.00001 12 4.55201 12 4.00001C12 3.44801 11.552 3.00001 11 3.00001Z" fill="rgb(34, 34, 34)" fill-opacity="1.00"/></svg>

<!-- Generated by Trend Micro Style Portal -->
<svg version="1.1" xmlns="http://www.w3.org/2000/svg" width="16" height="16" viewBox="0 0 16 16">
  <title>chart-scatter</title>
  <path fill="rgb(34,34,34)" d="M16 13.963v1h-16v-14h1v13zM4 10c-0.552 0-1 0.448-1 1s0.448 1 1 1c0.552 0 1-0.448 1-1v0c0-0.552-0.448-1-1-1v0zM5 6c-0.552 0-1 0.448-1 1s0.448 1 1 1c0.552 0 1-0.448 1-1v0c0-0.552-0.448-1-1-1v0zM7 9c-0.552 0-1 0.448-1 1s0.448 1 1 1c0.552 0 1-0.448 1-1v0c0-0.552-0.448-1-1-1v0zM9 6c-0.552 0-1 0.448-1 1s0.448 1 1 1c0.552 0 1-0.448 1-1v0c0-0.552-0.448-1-1-1v0zM7 3c-0.552 0-1 0.448-1 1s0.448 1 1 1c0.552 0 1-0.448 1-1v0c0-0.552-0.448-1-1-1v0zM13 7c-0.552 0-1 0.448-1 1s0.448 1 1 1c0.552 0 1-0.448 1-1v0c0-0.552-0.448-1-1-1v0zM11 3c-0.552 0-1 0.448-1 1s0.448 1 1 1c0.552 0 1-0.448 1-1v0c0-0.552-0.448-1-1-1v0z"></path>
</svg>
